X: 7
T: O'Rourke's
Z: Aberfoyle Whistler
S: https://thesession.org/tunes/90#setting51887
R: reel
M: 4/4
L: 1/8
K: Amix
cAEA fAeA|cAec d2 ed|c~a3 fdB/c/d|fage d2 ed|
cAeA fAeA|cAec d2 ed|c~a3 fdB/c/d|fage d2 ef|
g2 fg eBef|gefd e ~a3|g2 fg edB/c/d|fage d2ef|
g2 fd e3 f|gefd e ~a3|b2 af gfed|e ~a3 a z2 B||

%-------------------- TUNE SEPARATOR --------------------%

